X:1
T:Title
%%score { 1 | 2 }
L:1/8
M:6/8
K:G
V:1 treble nm="Grand Piano"
V:2 bass 
V:1
 z3 z2[Q:1/4=100] D | G2 A BAG | AGF .G3 | GAB cBA | G2 E A2 D | [DG]2 [DB] [Dd][DB][DG] | %6
 AGF .G3 | [B,D][B,D][B,D] .E3 | FFF G2 G | A2 B [Ec][DB]A |[M:5/8] GGF [B,G]2 |[M:1/8] G | %12
[M:3/4] dB G .e3 | dB G [Fc]2 [Fc] | [DGB]2 [DGB][Ec] [DB][CA] |[M:5/8] [B,G][B,G][A,F] [B,G]2 |] %16
V:2
 z3 z2 D, | [G,B,]2 [G,C] [G,D][G,C][G,B,] | [D,F,C][D,G,B,][D,A,] .[G,B,]3 | %3
 [G,B,][G,C][G,D] [G,E][G,D][F,A,D] | [E,A,^C]2 [E,G,C] [D,F,D]2 [C,F,] | %5
 [B,,G,]2 [B,,G,] [G,,G,][G,,G,][B,,G,] | [D,F,C][D,G,B,][D,A,] .[G,B,]3 | %7
 [G,,G,][G,,G,][G,,G,] .[C,G,C]3 | [D,C][D,F,C][D,A,C] [E,G,B,]2 [E,B,E] | %9
 [F,A,D]2 [G,D] [C,G,][C,G,][C,G,C] |[M:5/8] [D,B,][D,B,D][D,A,C] [G,,G,]2 |[M:1/8] z | %12
[M:3/4][K:treble] [G,B,G]2 [G,B,] .[G,CG]3 | [G,B,G]2 [G,B,][K:bass] [D,A,]2 [D,A,] | %14
 [G,,G,]2 [G,,G,] [C,,C,]2 [C,,C,] |[M:5/8] [D,,D,]2 [D,,D,] [G,,G,]2 |] %16

